svgs/regular/bridge-water.svg

<svg xmlns="http://www.w3.org/2000/svg" viewBox="0 0 576 512"><!--! Font Awesome Pro 6.3.0 by @fontawesome - https://fontawesome.com License - https://fontawesome.com/license (Commercial License) Copyright 2023 Fonticons, Inc. --><path d="M48 112v50.8c45.9 10.9 80 52.2 80 101.5V361c-14.8-8.5-32-10.6-48-6.5V264.3C80 233.2 54.8 208 23.7 208C10.6 208 0 197.4 0 184.3V96C0 78.3 14.3 64 32 64H544c17.7 0 32 14.3 32 32v88.3c0 13.1-10.6 23.7-23.7 23.7c-31.1 0-56.3 25.2-56.3 56.3v90.2c-16-4.1-33.2-2-48 6.6V264.3c0-49.2 34.1-90.5 80-101.5V112H48zM192 384.5c-5.2 0-10.5-.6-16-1.7V272c0-61.9 50.1-112 112-112s112 50.1 112 112V382.8c-5.5 1.1-10.8 1.7-16 1.7c-10.4 0-21.3-2.2-32-6.1V272c0-35.3-28.7-64-64-64s-64 28.7-64 64V378.4c-10.3 3.8-21.1 6.1-32 6.1zm-80.1 13.6c21.5 18.6 51.2 33.9 80 33.9s58.5-15.3 80-33.9c9.1-8.1 22.8-8.1 31.9 0c21.6 18.6 51.2 33.9 80 33.9s58.5-15.3 80-33.9c9.1-8.1 22.8-8.1 31.9 0c16.9 15.1 39.3 26.8 61.3 31.8c12.9 2.9 21.1 15.7 18.2 28.7s-15.7 21.1-28.7 18.2c-28.7-6.4-52.3-20.5-66.7-30.4c-28.1 19.5-61.4 33.8-96 33.8s-67.9-14.3-96-33.8c-28.1 19.5-61.4 33.8-96 33.8s-67.9-14.3-96-33.8c-14.4 10-38 24-66.7 30.4c-12.9 2.9-25.8-5.2-28.7-18.2s5.2-25.8 18.2-28.7c22.2-5 44-16.8 61.2-31.7c9.1-8.1 22.8-8.1 31.9 0z"/></svg>

<svg xmlns="http://www.w3.org/2000/svg" viewBox="0 0 576 512"><!--! Font Awesome Pro 6.2.0 by @fontawesome - https://fontawesome.com License - https://fontawesome.com/license (Commercial License) Copyright 2022 Fonticons, Inc. --><path d="M48 112V162.8C93.88 173.8 128 215.1 128 264.3V361C113.2 352.5 95.96 350.4 80 354.5V264.3C80 233.2 54.8 208 23.7 208C10.61 208 0 197.4 0 184.3V96C0 78.33 14.33 64 32 64H544C561.7 64 576 78.33 576 96V184.3C576 197.4 565.4 208 552.3 208C521.2 208 496 233.2 496 264.3V354.5C480 350.4 462.8 352.5 448 361V264.3C448 215.1 482.1 173.8 528 162.8V112L48 112zM192 384.5C186.9 384.5 181.5 383.9 176 382.8V272C176 210.1 226.1 160 288 160C349.9 160 400 210.1 400 272V382.8C394.5 383.9 389.2 384.5 384 384.5C373.6 384.5 362.7 382.3 352 378.3V272C352 236.7 323.3 208 288 208C252.7 208 224 236.7 224 272V378.4C213.7 382.2 202.9 384.5 192 384.5zM191.1 432C220.8 432 250.5 416.7 272 398.1C281.1 389.1 294.8 389.1 303.1 398.1C325.5 416.7 355.1 432 383.1 432C412.8 432 442.5 416.7 464 398.1C473.1 389.1 486.8 389.1 495.9 398.1C512.9 413.1 535.2 424.9 557.2 429.8C570.1 432.7 578.3 445.5 575.4 458.5C572.5 471.4 559.6 479.5 546.7 476.6C518 470.2 494.4 456.2 479.1 446.2C451.9 465.7 418.6 480 383.1 480C349.4 480 316.1 465.7 287.1 446.2C259.9 465.7 226.6 480 191.1 480C157.4 480 124.1 465.7 95.98 446.2C81.61 456.2 57.99 470.2 29.3 476.6C16.37 479.5 3.535 471.4 .6333 458.5C-2.268 445.5 5.865 432.7 18.8 429.8C41 424.8 62.76 412.1 79.1 398.1C89.09 389.1 102.8 389.1 111.9 398.1C133.5 416.7 163.1 432 191.1 432L191.1 432z"/></svg>
